app/assets/img/inline_icons/social_xing.svg

<?xml version="1.0" encoding="UTF-8"?>
<svg width="17px" height="21px" viewBox="0 0 17 21" version="1.1" xmlns="http://www.w3.org/2000/svg" xmlns:xlink="http://www.w3.org/1999/xlink">
    <!-- Generator: sketchtool 48.1 (47250) - http://www.bohemiancoding.com/sketch -->
    <title>69FB20F0-9BEF-4732-8066-1CDD92E1DBF6</title>
    <desc>Created with sketchtool.</desc>
    <defs></defs>
    <g id="ETO_Form_media" stroke="none" stroke-width="1" fill="none" fill-rule="evenodd" transform="translate(-619.000000, -374.000000)">
        <g id="social" transform="translate(471.000000, 293.000000)" fill="#AABCCA" fill-rule="nonzero">
            <g id="xing" transform="translate(148.000000, 81.000000)">
                <path d="M16.0574618,0.204697674 C15.9140465,-0.0431860465 15.6260797,0.000976744186 14.558608,0.00641860465 C13.9181628,0.00976744186 13.2972226,-0.00844186047 12.9835648,0.010744186 C12.7018472,0.0279767442 12.4987807,0.186976744 12.3366811,0.406813953 L11.8119402,1.43448837 L9.53238206,5.89953488 C8.37521262,8.14088372 7.21204651,10.3815349 6.16237542,12.5004419 L9.32407641,18.8423721 L10.2069136,20.6132791 C10.2983787,20.7882558 10.3958405,20.8146977 10.4950066,20.8484651 C10.9529003,21.0042558 11.6221296,20.9589767 12.3456445,20.9589767 C12.9600831,20.9589767 13.7587774,20.9712558 13.8904518,20.6543023 C13.956289,20.4957209 13.8986578,20.2828605 13.8071296,20.069093 C13.8071296,20.069093 13.3011362,19.0604651 12.638093,17.7284651 C12.9459435,18.3436047 13.2560033,18.9616744 13.5679568,19.5845581 L10.0554817,12.4678605 C10.1346379,12.6343953 10.2146777,12.8003721 10.294402,12.9665581 C10.209186,12.7896977 10.1290831,12.6225349 10.0554817,12.4678605 L12.7150399,7.24088372 C13.6375183,5.44681395 14.5625216,3.64862791 15.4687143,1.82881395 L15.4721229,1.82204651 L15.4730066,1.82044186 C15.4727542,1.82086047 15.4725648,1.82127907 15.4723754,1.82162791 L16.0893389,0.609 C16.1739236,0.416023256 16.1221628,0.316813953 16.0574618,0.204697674 Z" id="XMLID_447_"></path>
                <path d="M5.22525249,5.18776744 C4.99359136,4.74174419 4.8185515,4.16023256 4.28857143,4.15227907 C3.35182724,4.15227907 2.41470432,4.15227907 1.47802326,4.15227907 C1.32469767,4.17655814 1.18715282,4.21918605 1.1559701,4.37874419 C1.1058505,4.71495349 1.36490698,5.17674419 1.50769103,5.44688372 C1.83984385,6.07744186 3.00919601,8.13167442 3.00023256,8.35876744 C2.99442525,8.511 1.16228239,11.9681163 0.365860465,13.5358605 C0.247378738,13.7686047 -0.00719601329,14.1880465 0.0728438538,14.3771163 C0.156607973,14.574907 0.322936877,14.6486512 0.424059801,14.636093 C1.37065116,14.636093 2.31743189,14.636093 3.2641495,14.636093 C3.84431229,14.5580233 3.87006645,14.218814 4.40547508,13.1475349 C5.22512625,11.5075814 6.099,9.84125581 6.86480731,8.32639535 C6.3914485,7.35425581 5.76211296,6.22144186 5.22525249,5.18776744 Z" id="XMLID_449_"></path>
            </g>
        </g>
    </g>
</svg>

<svg xmlns="http://www.w3.org/2000/svg" width="17" height="21" viewBox="0 0 17 21">
    <g fill="#AABCCA" fill-rule="nonzero">
        <path d="M16.057.205c-.143-.248-.43-.204-1.498-.199-.64.004-1.262-.014-1.575.005-.282.017-.485.176-.647.396l-.525 1.027L9.532 5.9c-1.157 2.24-2.32 4.482-3.37 6.6l3.162 6.342.883 1.771c.091.175.189.202.288.235.458.156 1.127.111 1.85.111.615 0 1.414.012 1.545-.305.066-.158.009-.371-.083-.585 0 0-.506-1.009-1.169-2.34l.93 1.856-3.513-7.117.24.499-.24-.5 2.66-5.226c.923-1.794 1.848-3.592 2.754-5.412l.003-.007.001-.002v.002l.616-1.213c.085-.193.033-.292-.032-.404zM5.225 5.188c-.231-.446-.406-1.028-.936-1.036H1.478c-.153.025-.29.067-.322.227-.05.336.209.798.352 1.068.332.63 1.501 2.685 1.492 2.912-.006.152-1.838 3.61-2.634 5.177-.119.233-.373.652-.293.841.084.198.25.272.351.26h2.84c.58-.079.606-.418 1.141-1.49.82-1.64 1.694-3.306 2.46-4.82-.474-.973-1.103-2.106-1.64-3.14z"/>
    </g>
</svg>
